svg/furkot/freepik/chain.svg

<svg viewBox="0 0 512 512" xmlns="http://www.w3.org/2000/svg"><path d="m217.872 217.872c4.341-4.344 10.133-6.734 16.305-6.734s11.963 2.393 16.305 6.734l44.131 44.132c1.529 1.526 3.601 2.386 5.759 2.386s4.233-.858 5.759-2.386l44.13-44.132c1.53-1.526 2.387-3.6 2.387-5.758 0-2.159-.858-4.234-2.387-5.759l-44.13-44.132c-19.227-19.221-44.784-29.805-71.958-29.805s-52.731 10.584-71.958 29.803l-132.398 132.398c-19.227 19.227-29.817 44.786-29.817 71.969 0 27.186 10.59 52.737 29.819 71.95l44.129 44.128c19.211 19.227 44.764 29.818 71.947 29.818s52.742-10.591 71.971-29.818l74.611-74.61c2.4-2.4 3.06-6.037 1.659-9.126-1.328-2.924-4.238-4.78-7.415-4.78-.182 0-.361.007-.546.019-2.625.177-5.287.264-7.912.264-20.723 0-41.104-5.509-58.935-15.934-1.282-.749-2.7-1.112-4.108-1.112-2.107 0-4.193.817-5.762 2.386l-47.241 47.24c-4.35 4.349-10.139 6.748-16.302 6.748-6.167 0-11.961-2.395-16.311-6.748l-44.131-44.131c-4.355-4.345-6.753-10.126-6.758-16.281-.003-6.17 2.395-11.97 6.758-16.333z"/><path d="m482.666 73.937-44.131-44.131c-19.213-19.219-44.764-29.806-71.947-29.806s-52.742 10.584-71.968 29.803l-74.614 74.643c-2.4 2.401-3.059 6.04-1.656 9.129 1.328 2.921 4.239 4.776 7.413 4.776.182 0 .366-.005.551-.019 2.65-.179 5.335-.269 7.986-.269 20.764 0 41.098 5.507 58.808 15.926 1.287.758 2.713 1.124 4.126 1.124 2.108 0 4.193-.817 5.763-2.386l47.272-47.273c4.342-4.344 10.134-6.734 16.305-6.734s11.963 2.393 16.305 6.734l44.132 44.132c8.982 8.993 8.982 23.633-.003 32.632l-132.393 132.394c-4.343 4.353-10.123 6.747-16.281 6.747-6.173 0-11.975-2.397-16.341-6.752l-44.121-44.124c-1.529-1.526-3.6-2.387-5.759-2.387s-4.234.858-5.759 2.387l-44.132 44.132c-3.182 3.182-3.182 8.338 0 11.52l44.132 44.132c19.227 19.227 44.783 29.816 71.957 29.816 27.176 0 52.732-10.589 71.959-29.816l132.397-132.398c19.227-19.218 29.817-44.778 29.817-71.966s-10.591-52.747-29.818-71.966z"/></svg>

<svg xmlns="http://www.w3.org/2000/svg" viewBox="0 0 512 512"><path d="M217.872 217.872C222.213 213.528 228.005 211.138 234.177 211.138S246.14 213.531 250.482 217.872L294.613 262.004C296.142 263.53 298.214 264.39 300.372 264.39S304.605 263.532 306.131 262.004L350.261 217.872C351.791 216.346 352.648 214.272 352.648 212.114 352.648 209.955 351.79 207.88 350.261 206.355L306.131 162.223C286.904 143.002 261.347 132.418 234.173 132.418S181.442 143.002 162.215 162.221L29.817 294.619C10.59 313.846 0 339.405 0 366.588 0 393.774 10.59 419.325 29.819 438.538L73.948 482.666C93.159 501.893 118.712 512.484 145.895 512.484S198.637 501.893 217.866 482.666L292.477 408.056C294.877 405.656 295.537 402.019 294.136 398.93 292.808 396.006 289.898 394.15 286.721 394.15 286.539 394.15 286.36 394.157 286.175 394.169 283.55 394.346 280.888 394.433 278.263 394.433 257.54 394.433 237.159 388.924 219.328 378.499 218.046 377.75 216.628 377.387 215.22 377.387 213.113 377.387 211.027 378.204 209.458 379.773L162.217 427.013C157.867 431.362 152.078 433.761 145.915 433.761 139.748 433.761 133.954 431.366 129.604 427.013L85.473 382.882C81.118 378.537 78.72 372.756 78.715 366.601 78.712 360.431 81.11 354.631 85.473 350.268L217.872 217.872Z"/><path d="M482.666 73.937L438.535 29.806C419.322 10.587 393.771 0 366.588 0S313.846 10.584 294.62 29.803L220.006 104.446C217.606 106.847 216.947 110.486 218.35 113.575 219.678 116.496 222.589 118.351 225.763 118.351 225.945 118.351 226.129 118.346 226.314 118.332 228.964 118.153 231.649 118.063 234.3 118.063 255.064 118.063 275.398 123.57 293.108 133.989 294.395 134.747 295.821 135.113 297.234 135.113 299.342 135.113 301.427 134.296 302.997 132.727L350.269 85.454C354.611 81.11 360.403 78.72 366.574 78.72S378.537 81.113 382.879 85.454L427.011 129.586C435.993 138.579 435.993 153.219 427.008 162.218L294.615 294.612C290.272 298.965 284.492 301.359 278.334 301.359 272.161 301.359 266.359 298.962 261.993 294.607L217.872 250.483C216.343 248.957 214.272 248.096 212.113 248.096 209.954 248.096 207.879 248.954 206.354 250.483L162.222 294.615C159.04 297.797 159.04 302.953 162.222 306.135L206.354 350.267C225.581 369.494 251.137 380.083 278.311 380.083 305.487 380.083 331.043 369.494 350.27 350.267L482.667 217.869C501.894 198.651 512.484 173.091 512.484 145.903S501.893 93.156 482.666 73.937Z"/></svg>
